img/icons/icons-services/icon-question-answer.svg

<svg width="120" height="120" viewBox="0 0 120 120" fill="none" xmlns="http://www.w3.org/2000/svg">
<path d="M16.4513 14.7128C15.1812 14.7127 13.9629 15.2224 13.0636 16.1301C12.1644 17.0378 11.6576 18.2694 11.6542 19.5548V66.1461C11.6576 67.4314 12.1644 68.6631 13.0636 69.5708C13.9629 70.4785 15.1812 70.9881 16.4513 70.9881H19.6579C19.8577 70.9923 20.0494 71.0686 20.1987 71.2031C20.348 71.3377 20.4449 71.5218 20.4721 71.7222L22.4317 88.0123L34.9652 71.2713C35.0423 71.1674 35.1421 71.0831 35.2569 71.025C35.3718 70.9669 35.4982 70.9367 35.6266 70.9367H81.5614C82.8293 70.9333 84.0442 70.422 84.9407 69.5146C85.8372 68.6073 86.3424 67.3778 86.3458 66.0947V19.5161C86.3424 18.233 85.8372 17.0033 84.9407 16.096C84.0442 15.1887 82.8293 14.6775 81.5614 14.6741L16.4513 14.7128ZM21.8591 91H21.6426C21.4848 90.9529 21.3435 90.8614 21.2353 90.7359C21.1272 90.6105 21.0566 90.4563 21.0319 90.2917L18.9197 72.688H16.4513C14.7425 72.688 13.1035 72.0019 11.894 70.7803C10.6846 69.5586 10.0034 67.9012 10 66.1718V19.5161C10.0034 17.7867 10.6846 16.1294 11.894 14.9078C13.1035 13.6861 14.7425 13 16.4513 13H81.5614C83.268 13.0034 84.9036 13.691 86.1103 14.9123C87.317 16.1336 87.9966 17.789 88 19.5161V66.1075C87.9966 67.8347 87.317 69.49 86.1103 70.7112C84.9036 71.9325 83.268 72.6202 81.5614 72.6236H36.0848L22.5715 90.6523C22.4944 90.7562 22.3946 90.8407 22.2798 90.8988C22.1649 90.9569 22.0385 90.9871 21.9101 90.9871L21.8591 91Z" fill="#282828"/>
<path d="M34.5808 75.024V81.8183C34.5808 83.092 35.0799 84.3137 35.9688 85.2156C36.8577 86.1175 38.0638 86.6257 39.3226 86.6291H84.9828C85.111 86.626 85.2381 86.6547 85.3527 86.7127C85.4673 86.7707 85.566 86.8562 85.6404 86.9618L98.083 103.595L100.03 87.4224C100.055 87.22 100.152 87.034 100.304 86.8995C100.455 86.765 100.651 86.6916 100.852 86.6932H104.039C104.663 86.6932 105.281 86.5687 105.858 86.3269C106.435 86.0851 106.959 85.7308 107.401 85.284C107.842 84.8373 108.192 84.3071 108.431 83.7234C108.67 83.1397 108.793 82.514 108.793 81.8822V35.5767C108.793 34.9449 108.67 34.3192 108.431 33.7355C108.192 33.1518 107.842 32.6215 107.401 32.1747C106.959 31.728 106.435 31.3736 105.858 31.1318C105.281 30.8901 104.663 30.7657 104.039 30.7657H87.9165V66.3489C87.9132 68.065 87.2378 69.7098 86.0386 70.9232C84.8395 72.1367 83.2141 72.8199 81.5182 72.8233H36.3256L34.5808 75.024ZM98.652 106.5C98.5244 106.5 98.3984 106.47 98.2843 106.412C98.1702 106.354 98.071 106.271 97.9944 106.167L84.5781 88.2541H39.3226C37.6388 88.2339 36.0308 87.543 34.8472 86.331C33.6637 85.119 33.0001 83.4838 33.0002 81.7799V74.7041C32.9963 74.5236 33.0542 74.3472 33.1644 74.2051L35.276 71.3903C35.3526 71.287 35.4521 71.2031 35.5662 71.1453C35.6803 71.0876 35.806 71.0576 35.9336 71.0576H81.5815C82.8414 71.0542 84.0487 70.5462 84.9396 69.6447C85.8305 68.7432 86.3326 67.5215 86.3359 66.2466V29.8444C86.3359 29.6226 86.422 29.4098 86.5758 29.2518C86.7296 29.0938 86.9386 29.0034 87.1577 29H104.102C105.798 29.0034 107.423 29.6866 108.622 30.9001C109.822 32.1135 110.497 33.7582 110.5 35.4743V81.7799C110.497 83.4959 109.822 85.1406 108.622 86.3541C107.423 87.5675 105.798 88.2508 104.102 88.2541H101.573L99.4738 105.732C99.4507 105.896 99.3811 106.05 99.2734 106.175C99.1657 106.3 99.0244 106.391 98.8668 106.436H98.652V106.5Z" fill="#282828"/>
<path d="M76.1676 32H19.8201C19.7124 32 19.6058 31.9871 19.5063 31.962C19.4068 31.9368 19.3163 31.9 19.2402 31.8536C19.1641 31.8072 19.1037 31.752 19.0625 31.6913C19.0213 31.6307 19 31.5657 19 31.5C19 31.4344 19.0213 31.3693 19.0625 31.3087C19.1037 31.248 19.1641 31.1928 19.2402 31.1464C19.3163 31.1 19.4068 31.0632 19.5063 31.038C19.6058 31.0129 19.7124 31 19.8201 31H76.1676C76.3862 31 76.596 31.0524 76.7518 31.1459C76.9076 31.2395 76.9967 31.3667 77 31.5C76.9967 31.6334 76.9076 31.7605 76.7518 31.8541C76.596 31.9476 76.3862 32 76.1676 32Z" fill="#282828"/>
<path d="M76.18 42H19.8203C19.7126 42 19.6059 41.9871 19.5064 41.962C19.4069 41.9368 19.3164 41.9 19.2403 41.8536C19.1641 41.8072 19.1037 41.752 19.0625 41.6913C19.0213 41.6307 19 41.5656 19 41.5C19 41.4343 19.0213 41.3693 19.0625 41.3087C19.1037 41.248 19.1641 41.1928 19.2403 41.1464C19.3164 41.1 19.4069 41.0632 19.5064 41.038C19.6059 41.0129 19.7126 41 19.8203 41H76.18C76.2877 41 76.3944 41.0129 76.4939 41.038C76.5934 41.0632 76.6839 41.1 76.76 41.1464C76.8362 41.1928 76.8966 41.248 76.9378 41.3087C76.979 41.3693 77 41.4343 77 41.5C77 41.5656 76.979 41.6307 76.9378 41.6913C76.8966 41.752 76.8362 41.8072 76.76 41.8536C76.6839 41.9 76.5934 41.9368 76.4939 41.962C76.3944 41.9871 76.2877 42 76.18 42Z" fill="#282828"/>
<path d="M76.18 52H19.8203C19.7126 52 19.6059 51.9871 19.5064 51.962C19.4069 51.9368 19.3164 51.8999 19.2403 51.8535C19.1641 51.8071 19.1037 51.752 19.0625 51.6914C19.0213 51.6307 19 51.5657 19 51.5C19 51.4343 19.0213 51.3693 19.0625 51.3086C19.1037 51.248 19.1641 51.1929 19.2403 51.1465C19.3164 51.1001 19.4069 51.0632 19.5064 51.0381C19.6059 51.013 19.7126 51 19.8203 51H76.18C76.2877 51 76.3944 51.013 76.4939 51.0381C76.5934 51.0632 76.6839 51.1001 76.76 51.1465C76.8362 51.1929 76.8966 51.248 76.9378 51.3086C76.979 51.3693 77 51.4343 77 51.5C77 51.5657 76.979 51.6307 76.9378 51.6914C76.8966 51.752 76.8362 51.8071 76.76 51.8535C76.6839 51.8999 76.5934 51.9368 76.4939 51.962C76.3944 51.9871 76.2877 52 76.18 52Z" fill="#282828"/>
</svg>

<svg width="120" height="120" fill="none" xmlns="http://www.w3.org/2000/svg"><path d="M16.451 14.713c-1.27 0-2.488.51-3.387 1.417a4.885 4.885 0 00-1.41 3.425v46.591a4.885 4.885 0 001.41 3.425 4.768 4.768 0 003.387 1.417h3.207c.2.004.391.08.54.215.15.135.247.319.274.52l1.96 16.29L34.965 71.27a.83.83 0 01.662-.334H81.56a4.768 4.768 0 003.38-1.422 4.885 4.885 0 001.405-3.42V19.516a4.885 4.885 0 00-1.405-3.42 4.768 4.768 0 00-3.38-1.422l-65.11.039zM21.86 91h-.216a.864.864 0 01-.611-.708L18.92 72.688h-2.47a6.413 6.413 0 01-4.557-1.908A6.57 6.57 0 0110 66.172V19.516a6.569 6.569 0 011.894-4.608A6.412 6.412 0 0116.451 13h65.11a6.412 6.412 0 014.55 1.912A6.57 6.57 0 0188 19.516v46.592a6.569 6.569 0 01-1.89 4.603 6.412 6.412 0 01-4.549 1.913H36.085L22.57 90.652a.83.83 0 01-.66.335l-.052.013z" fill="#282828"/><path d="M34.58 75.024v6.794c0 1.274.5 2.496 1.389 3.398a4.726 4.726 0 003.354 1.413h45.66a.778.778 0 01.657.333l12.443 16.633 1.947-16.173a.834.834 0 01.274-.522.815.815 0 01.548-.207h3.187c.624 0 1.242-.124 1.819-.366a4.757 4.757 0 001.543-1.043 4.821 4.821 0 001.03-1.56 4.86 4.86 0 00.362-1.842V35.577a4.86 4.86 0 00-1.392-3.402 4.758 4.758 0 00-1.543-1.043 4.707 4.707 0 00-1.819-.366H87.916v35.583a6.526 6.526 0 01-1.877 4.574 6.372 6.372 0 01-4.52 1.9H36.325l-1.745 2.201zM98.653 106.5a.811.811 0 01-.658-.333L84.578 88.254H39.323a6.362 6.362 0 01-4.476-1.923A6.514 6.514 0 0133 81.78v-7.076a.787.787 0 01.164-.499l2.112-2.815a.827.827 0 01.658-.332h45.648a4.739 4.739 0 003.358-1.413 4.853 4.853 0 001.396-3.398V29.844a.85.85 0 01.24-.592.83.83 0 01.582-.252h16.944a6.371 6.371 0 014.52 1.9 6.521 6.521 0 011.878 4.574V81.78a6.522 6.522 0 01-1.878 4.574 6.371 6.371 0 01-4.52 1.9h-2.529l-2.1 17.478a.863.863 0 01-.2.443.843.843 0 01-.406.261h-.215v.064zM76.168 32H19.82a1.29 1.29 0 01-.314-.038.971.971 0 01-.266-.108.571.571 0 01-.177-.163A.339.339 0 0119 31.5c0-.066.021-.13.063-.191a.571.571 0 01.177-.163.971.971 0 01.266-.108c.1-.025.206-.038.314-.038h56.348c.218 0 .428.052.584.146.156.093.245.22.248.354-.003.133-.092.26-.248.354a1.158 1.158 0 01-.584.146z" fill="#282828"/><path d="M76.18 42H19.82c-.107 0-.214-.013-.314-.038a.971.971 0 01-.266-.108.57.57 0 01-.177-.163A.339.339 0 0119 41.5c0-.066.021-.13.063-.191a.57.57 0 01.177-.163.971.971 0 01.266-.108c.1-.025.207-.038.314-.038h56.36c.108 0 .214.013.314.038s.19.062.266.108a.57.57 0 01.178.163c.041.06.062.125.062.191s-.021.13-.062.191a.57.57 0 01-.178.163.971.971 0 01-.266.108c-.1.025-.206.038-.314.038zm0 10H19.82c-.107 0-.214-.013-.314-.038a.971.971 0 01-.266-.109.571.571 0 01-.177-.162A.34.34 0 0119 51.5a.34.34 0 01.063-.191.571.571 0 01.177-.162.968.968 0 01.266-.109c.1-.025.207-.038.314-.038h56.36c.108 0 .214.013.314.038s.19.062.266.109a.571.571 0 01.178.162c.041.06.062.125.062.191s-.021.13-.062.191a.571.571 0 01-.178.162.971.971 0 01-.266.109c-.1.025-.206.038-.314.038z" fill="#282828"/></svg>
